src/com/lilithsthrone/res/crafting/essenceSquirrelMorph.svg

<?xml version="1.0" encoding="UTF-8" standalone="no"?>
<!-- Created with Inkscape (http://www.inkscape.org/) -->

<svg
   xmlns:dc="http://purl.org/dc/elements/1.1/"
   xmlns:cc="http://creativecommons.org/ns#"
   xmlns:rdf="http://www.w3.org/1999/02/22-rdf-syntax-ns#"
   xmlns:svg="http://www.w3.org/2000/svg"
   xmlns="http://www.w3.org/2000/svg"
   xmlns:sodipodi="http://sodipodi.sourceforge.net/DTD/sodipodi-0.dtd"
   xmlns:inkscape="http://www.inkscape.org/namespaces/inkscape"
   width="100%"
   height="100%"
   viewBox="0 0 64.000001 64.000001"
   id="svg4311"
   version="1.1"
   inkscape:version="0.91 r13725"
   sodipodi:docname="essenceSquirrelMorph.svg">
  <defs
     id="defs4313">
    <inkscape:path-effect
       effect="powerstroke"
       id="path-effect4155"
       is_visible="true"
       offset_points="0.92799346,1.2886104"
       sort_points="true"
       interpolator_type="Linear"
       interpolator_beta="0.2"
       start_linecap_type="zerowidth"
       linejoin_type="round"
       miter_limit="4"
       end_linecap_type="zerowidth"
       cusp_linecap_type="round" />
    <inkscape:path-effect
       effect="powerstroke"
       id="path-effect4151"
       is_visible="true"
       offset_points="0,0.5"
       sort_points="true"
       interpolator_type="CubicBezierJohan"
       interpolator_beta="0.2"
       start_linecap_type="zerowidth"
       linejoin_type="round"
       miter_limit="4"
       end_linecap_type="zerowidth"
       cusp_linecap_type="round" />
    <inkscape:path-effect
       effect="powerstroke"
       id="path-effect4147"
       is_visible="true"
       offset_points="0,0.5"
       sort_points="true"
       interpolator_type="CubicBezierJohan"
       interpolator_beta="0.2"
       start_linecap_type="zerowidth"
       linejoin_type="round"
       miter_limit="4"
       end_linecap_type="zerowidth"
       cusp_linecap_type="round" />
    <inkscape:path-effect
       effect="powerstroke"
       id="path-effect4183"
       is_visible="true"
       offset_points="0.238227,0.51804536"
       sort_points="true"
       interpolator_type="Linear"
       interpolator_beta="0.2"
       start_linecap_type="zerowidth"
       linejoin_type="round"
       miter_limit="4"
       end_linecap_type="zerowidth"
       cusp_linecap_type="round" />
  </defs>
  <sodipodi:namedview
     id="base"
     pagecolor="#ffffff"
     bordercolor="#666666"
     borderopacity="1.0"
     inkscape:pageopacity="0.0"
     inkscape:pageshadow="2"
     inkscape:zoom="7.9195959"
     inkscape:cx="40.563191"
     inkscape:cy="33.882966"
     inkscape:document-units="px"
     inkscape:current-layer="layer5"
     showgrid="false"
     units="px"
     inkscape:window-width="2560"
     inkscape:window-height="1388"
     inkscape:window-x="-8"
     inkscape:window-y="-8"
     inkscape:window-maximized="1"
     showguides="false" />
  <metadata
     id="metadata4316">
    <rdf:RDF>
      <cc:Work
         rdf:about="">
        <dc:format>image/svg+xml</dc:format>
        <dc:type
           rdf:resource="http://purl.org/dc/dcmitype/StillImage" />
        <dc:title></dc:title>
      </cc:Work>
    </rdf:RDF>
  </metadata>
  <g
     inkscape:groupmode="layer"
     id="layer5"
     inkscape:label="Stage5"
     style="display:inline;opacity:1">
    <path
       sodipodi:type="star"
       style="fill:#ff8080;fill-opacity:1;stroke:#000000;stroke-width:0.73031849;stroke-linecap:round;stroke-miterlimit:4;stroke-dasharray:none;stroke-dashoffset:0;stroke-opacity:1"
       id="path4168"
       sodipodi:sides="5"
       sodipodi:cx="1.4285713"
       sodipodi:cy="-9.5714273"
       sodipodi:r1="17.431536"
       sodipodi:r2="14.102408"
       sodipodi:arg1="0.90885469"
       sodipodi:arg2="1.5371732"
       inkscape:flatsided="true"
       inkscape:rounded="0"
       inkscape:randomized="0"
       d="M 12.142857,4.1785731 -8.3375598,4.867448 -15.321516,-14.397712 0.8425794,-26.993111 17.816495,-15.512335 Z"
       inkscape:transform-center-x="0.97927869"
       inkscape:transform-center-y="-3.2456342"
       transform="matrix(1.5645444,0.05692315,-0.03980006,1.6319874,29.685873,48.596329)" />
    <path
       style="display:inline;opacity:1;fill:#ff2a2a;fill-opacity:1;fill-rule:evenodd;stroke:none;stroke-width:1;stroke-linecap:butt;stroke-linejoin:miter;stroke-miterlimit:4;stroke-dasharray:none;stroke-opacity:1"
       d="m 20.582822,54.193154 c 6.221526,-0.100896 12.209413,-1.977409 17.192409,-11.491071 l -1.591068,0.839732 c 0.93152,-1.661108 1.513541,-3.392113 1.85625,-5.170982 l -0.972319,0.574553 c 0.209979,-1.760402 0.445837,-3.469033 0.486159,-5.56875 l -0.928125,1.10491 -0.662943,-4.596428 -0.707147,1.149108 c 0.147203,1.826869 -2.196028,-7.451808 2.165625,-2.386608 l 0.176784,-0.928125 c 0.952538,1.491445 1.739965,3.258094 2.519194,5.038393 l 0.331481,-0.596652 1.591059,3.358929 c 0,0 0.707157,-3.049554 1.215413,-5.19308 0.287278,0.707142 0.596653,1.370089 0.596653,1.370089 0.466686,-2.598033 1.420066,-4.790496 1.259597,-7.91116 l 0.729234,0.685046 C 45.605379,22.37817 45.501795,20.235735 44.360503,18.482441 l 1.149103,0.353571 c -1.914244,-4.676069 -5.531397,-5.518885 -8.132137,-5.745535 l 1.591069,-1.193305 c -1.533253,-0.428 -3.049289,-0.776721 -5.878125,0.530358 0.33954,-0.676267 0.883713,-0.943274 1.281693,-1.502679 -3.198917,0.159913 -4.747169,2.049098 -6.80625,3.403126 l 0.220978,-1.745759 c -2.515075,1.316704 -3.162317,2.718311 -4.508024,4.088169 L 23.1904,14.90253 c -1.699117,1.344022 -1.869902,3.040735 -2.077228,4.729017 L 20.22924,18.349852 c -0.408008,2.577126 0.114058,4.947571 0.751341,7.29241 L 19.5663,25.111905 c 0.142382,1.541982 0.825917,2.813382 1.546875,4.066071 l -0.662954,-0.26518 c 9.018065,13.376531 5.2246,20.549268 0.132601,25.280358 z"
       id="path4158"
       inkscape:connector-curvature="0"
       sodipodi:nodetypes="ccccccccccccccccccccccccccccccccccc" />
    <path
       style="display:inline;opacity:1;fill:#f9f9f9;fill-opacity:1;fill-rule:evenodd;stroke:none;stroke-width:1px;stroke-linecap:butt;stroke-linejoin:miter;stroke-opacity:1"
       d="M 32.58813,6.8299461 C 43.141652,14.150158 45.68552,16.35403 56.6841,24.88989 47.793699,22.27626 34.541579,9.5048609 32.58813,6.8299461 Z"
       id="path4281-0"
       inkscape:connector-curvature="0"
       sodipodi:nodetypes="ccc" />
    <path
       style="display:inline;opacity:1;fill:#000000;fill-opacity:0.44859811;fill-rule:evenodd;stroke:none;stroke-width:1px;stroke-linecap:butt;stroke-linejoin:miter;stroke-opacity:1"
       d="M 48.528934,55.968492 C 36.350582,56.180178 24.675347,56.047986 16.557409,55.981412 13.168111,46.178694 9.9127758,35.093102 6.3878346,24.118699 11.878755,36.064798 12.7552,43.733966 21.138496,50.327266 c 6.025034,4.738571 15.106093,4.469879 27.390438,5.641226 z"
       id="path4283-0"
       inkscape:connector-curvature="0"
       sodipodi:nodetypes="cccsc" />
  </g>
</svg>

<svg xmlns="http://www.w3.org/2000/svg" viewBox="0 0 64 64">
    <path fill="#ff8080" stroke="#000" stroke-linecap="round" stroke-width=".73" d="M12.143 4.179l-20.48.688-6.985-19.265L.843-26.993l16.973 11.48z" transform="matrix(1.56454 .05692 -.0398 1.63199 29.686 48.596)"/>
    <path fill="#ff2a2a" fill-rule="evenodd" d="M20.583 54.193c6.221-.1 12.21-1.977 17.192-11.49l-1.59.839c.93-1.661 1.513-3.392 1.855-5.171l-.972.574c.21-1.76.446-3.469.486-5.568l-.928 1.105-.663-4.597-.707 1.15c.147 1.826-2.196-7.453 2.166-2.387l.176-.929c.953 1.492 1.74 3.259 2.52 5.039l.331-.597 1.591 3.36s.707-3.05 1.216-5.194c.287.707.596 1.37.596 1.37.467-2.598 1.42-4.79 1.26-7.911l.73.685c-.237-2.093-.34-4.235-1.481-5.989l1.149.354c-1.915-4.676-5.532-5.519-8.133-5.746l1.592-1.193c-1.534-.428-3.05-.777-5.879.53.34-.676.884-.943 1.282-1.502-3.199.16-4.747 2.049-6.806 3.403l.22-1.746c-2.514 1.317-3.161 2.719-4.507 4.088l-.089-1.767c-1.699 1.344-1.87 3.04-2.077 4.729l-.884-1.282c-.408 2.577.114 4.947.752 7.292l-1.415-.53c.143 1.542.826 2.813 1.547 4.066l-.663-.265c9.018 13.376 5.225 20.55.133 25.28z"/>
    <path fill="#f9f9f9" fill-rule="evenodd" d="M32.588 6.83c10.554 7.32 13.098 9.524 24.096 18.06-8.89-2.614-22.142-15.385-24.096-18.06z"/>
    <path fill-opacity=".449" fill-rule="evenodd" d="M48.529 55.968c-12.178.212-23.854.08-31.972.013-3.389-9.802-6.644-20.888-10.17-31.862 5.492 11.946 6.368 19.615 14.751 26.208 6.026 4.739 15.107 4.47 27.39 5.641z"/>
</svg>
